X: 1
T: Andrea's Choice
C: David A Kaynor 2015
%D:2015
R: jig
Z: 2021 John Chambers <jc:trillian.mit.edu>
S: "The Compositions of David A.Kaynor"
S: Dave_Kaynors_Melodies_and_Harmonies.PDF
B: David A. Kaynor Living Music and Dance p.65
M: 4/4
L: 1/8
K: Bm
dc |\
"Bm"B2BA Bcde | fBBA B2dc | B2BA Bcde | "A"cAA^G "F#m"A2dc |
"Bm"B2BA Bcde | fbba b2fd | "Em"e2ed edBc  | "Bm"dBBA B2 :|
|: Bd |\
"Em"e2ed edBc | "Bm"dBBA B2Bd | "Em"e2ed eBde | "Bm"effe f2Bd |
"Em"e2ed edBc | "Bm"dbba b2fd | "Em"e2ed edBc | "Bm"dBBA B2 :|
